X: 18041
T: Humours Of Ardgroom, The
R: jig
M: 6/8
K: Eminor
|:EF|G2E EFE|G2E GFE|F2D DED|F2D FED|
G2E EFE|G2E BAG|F2D AGF|E3 E2:|
|:EF|G2E B2E|G2E B2E|F2D A2D|F2D A2D|
G2E B2E|G2E BAG|F2D AGF|E3 E2:|
E2F G2A|B2G dBG|D2E F2G|A2F cAF|
E2F G2A|B2G dBG|F2D AGF|E3 E3:|
|:e2f g2e|e2f g2e|f2d afd|f2d afd|
e2f g2e|efe g2e|F2D AGF|E3 E3:|

